build/img/svg/ai.svg

<svg width="90" height="90" viewBox="0 0 90 90" fill="none" xmlns="http://www.w3.org/2000/svg">
<path d="M4.00342 4.45312H85.7639V85.458H4.00342V4.45312Z" fill="url(#paint0_radial_167_574)"/>
<path d="M4.00341 4.45367H85.7639V85.4586H4.00341V4.45367ZM0.287842 89.2423H89.4973V0.669922H0.287842V89.2423ZM58.7188 32.2496C58.7188 31.9404 58.826 31.7949 59.1654 31.7949H65.0067C65.3104 31.7949 65.4533 31.904 65.4533 32.2496V62.1194C65.4533 62.4286 65.3818 62.5742 65.0067 62.5742H59.2368C58.8617 62.5742 58.7545 62.3923 58.7545 62.083V32.2496H58.7188ZM58.3079 23.6453C58.3079 21.2258 59.9871 19.7888 62.095 19.7888C64.3636 19.7888 65.882 21.335 65.882 23.6453C65.882 26.1374 64.2922 27.5018 62.0235 27.5018C59.8799 27.52 58.3079 26.1556 58.3079 23.6453ZM41.5879 44.6923C40.5518 40.4902 38.0866 31.3401 37.1578 26.9015H37.0863C36.3003 31.3219 34.3353 38.8166 32.7812 44.6923H41.5879ZM31.2629 50.8227L28.3333 62.174C28.2618 62.4832 28.1546 62.556 27.7795 62.556H22.3133C21.9382 62.556 21.8667 62.4468 21.9382 61.9921L32.4954 24.3729C32.6741 23.6998 32.7991 23.0813 32.8706 21.2258C32.8706 20.953 32.9777 20.8438 33.1742 20.8438H40.9805C41.2485 20.8438 41.3556 20.9166 41.4271 21.2258L53.2526 62.0648C53.3241 62.3741 53.2526 62.556 52.9489 62.556H46.7861C46.4824 62.556 46.3038 62.4832 46.2323 62.2104L43.1777 50.8227H31.2629Z" fill="#FF7F18"/>
<defs>
<radialGradient id="paint0_radial_167_574" cx="0" cy="0" r="1" gradientUnits="userSpaceOnUse" gradientTransform="translate(30.958 22.6304) scale(62.1406 61.2673)">
<stop stop-color="#423325" stop-opacity="0.98"/>
<stop offset="1" stop-color="#1C0A00"/>
</radialGradient>
</defs>
</svg>

<svg width="90" height="90" fill="none" xmlns="http://www.w3.org/2000/svg"><path d="M4.003 4.453h81.76v81.005H4.004V4.453Z" fill="url(#a)"/><path d="M4.003 4.454h81.76v81.005H4.004V4.454ZM.288 89.242h89.21V.67H.287v88.572Zm58.43-56.992c0-.31.108-.455.447-.455h5.842c.303 0 .446.109.446.455v29.87c0 .309-.071.454-.446.454h-5.77c-.375 0-.483-.182-.483-.491V32.25h-.035Zm-.41-8.605c0-2.42 1.68-3.856 3.787-3.856 2.269 0 3.787 1.546 3.787 3.856 0 2.492-1.59 3.857-3.859 3.857-2.143.018-3.715-1.346-3.715-3.857Zm-16.72 21.047c-1.036-4.202-3.501-13.352-4.43-17.79h-.072c-.786 4.42-2.75 11.915-4.305 17.79h8.807Zm-10.325 6.13-2.93 11.352c-.071.31-.178.382-.553.382h-5.467c-.375 0-.446-.11-.375-.564l10.557-37.62c.18-.672.304-1.29.376-3.146 0-.273.107-.382.303-.382h7.806c.269 0 .376.073.447.382l11.826 40.839c.071.31 0 .491-.304.491h-6.163c-.304 0-.482-.073-.554-.346l-3.054-11.387H31.263Z" fill="#FF7F18"/><defs><radialGradient id="a" cx="0" cy="0" r="1" gradientUnits="userSpaceOnUse" gradientTransform="matrix(62.1406 0 0 61.2673 30.958 22.63)"><stop stop-color="#423325" stop-opacity=".98"/><stop offset="1" stop-color="#1C0A00"/></radialGradient></defs></svg>
